X:235
T:Trumpet Hornpipe
T:Pugwash
M:4/4
L:1/8
R:Hornpipe
K:G
(3DEF|:(3GGG G2 (3GGG G2|BGBd gdBG|(3DDD D2 (3DDD D2|FDFA cAFA|
|(3GGG G2 (3GGG G2|BGBd g2 gg|fagf egfe|1d2d2d2(3DEF:|2d2d2d2Bc|
|:(3ddd d2 (3ddd d2|efgf edcB|cded cBAG|ABcB ADEF|
|1(3GGG G2(3=F=F=F =F2|(3EEE E2 (3_E_E_E _E2|Dgfe dcBA|G2B2G2Bc|
:|2(3GGG G2(3BBB B2|(3ccc c2 (3^c^c^c ^c2|defe dcBA|G2B2G2(3DEF|
